packages/core/src/svgs/tokens/branded/BOBA.svg

<svg width="24" height="24" viewBox="0 0 24 24" fill="none" xmlns="http://www.w3.org/2000/svg">
<path d="M12.0548 15.3313H2.93604V2H12.0548C15.1797 2 17.7172 4.5375 17.7172 7.66874V9.66249C17.7172 11.1649 17.1209 12.6058 16.0591 13.6687C14.9975 14.7317 13.5572 15.3296 12.0548 15.3313Z" fill="#AEDB01"/>
<path d="M14.3985 22H2.93604V15.3313C2.93604 11.6501 5.91729 8.66876 9.59856 8.66876H14.3985C16.1663 8.66876 17.8618 9.37098 19.1118 10.6211C20.3619 11.8711 21.0641 13.5666 21.0641 15.3344C21.0641 17.1022 20.3619 18.7976 19.1118 20.0477C17.8618 21.2978 16.1663 22 14.3985 22Z" fill="#B0B1AC"/>
<path d="M17.7172 9.55006V9.6625C17.7172 11.1659 17.1201 12.6079 16.0569 13.6709C14.9938 14.734 13.552 15.3313 12.0486 15.3313H2.93604C2.93604 13.5643 3.63797 11.8697 4.88743 10.6202C6.1369 9.37069 7.83153 8.66876 9.59856 8.66876H14.3985C15.611 8.66876 16.7423 8.99377 17.7172 9.55006Z" fill="#5D6D3C"/>
</svg>

<svg xmlns="http://www.w3.org/2000/svg" width="24" height="24" fill="none" viewBox="0 0 24 24">
    <path fill="#AEDB01" d="M12.055 15.331H2.936V2h9.119a5.667 5.667 0 0 1 5.662 5.669v1.993a5.67 5.67 0 0 1-5.662 5.67"/>
    <path fill="#B0B1AC" d="M14.399 22H2.936v-6.669A6.66 6.66 0 0 1 9.599 8.67h4.8a6.665 6.665 0 1 1 0 13.331"/>
    <path fill="#5D6D3C" d="M17.717 9.55v.112a5.67 5.67 0 0 1-5.668 5.67H2.936a6.663 6.663 0 0 1 6.663-6.663h4.8c1.212 0 2.343.325 3.318.881"/>
</svg>
